_src/design/images/ui/flag-2.svg

<svg width="343" height="89" viewBox="0 0 343 89" fill="none" xmlns="http://www.w3.org/2000/svg">
<path d="M332 0C338.075 0 343 4.92487 343 11V79.7187C343 84.8323 338.828 89 333.642 89H4.68752C0.664141 89 -1.48166 84.3002 1.17079 81.3148L27.7251 51.195C31.1226 47.3524 31.1226 41.6181 27.7251 37.7755L1.17079 7.68516C-1.48166 4.69977 0.664141 0 4.68752 0H332Z" fill="#EDA85A"/>
<path d="M89.2783 35.7249H92.9263V18.8049H90.4063L85.5823 20.2449L86.3503 23.2689L89.2783 22.5489V35.7249ZM103.867 36.0129C108.355 36.0129 111.355 32.1969 111.355 27.3249C111.355 22.4049 108.355 18.6369 103.915 18.6369C99.4513 18.6369 96.4273 22.4529 96.4273 27.3249C96.4273 32.2449 99.3793 36.0129 103.867 36.0129ZM103.915 32.6769C101.683 32.6769 100.219 30.3969 100.219 27.3249C100.219 24.2049 101.659 21.9729 103.867 21.9729C106.075 21.9729 107.563 24.2769 107.563 27.3249C107.563 30.4209 106.147 32.6769 103.915 32.6769ZM121.399 36.0129C125.887 36.0129 128.887 32.1969 128.887 27.3249C128.887 22.4049 125.887 18.6369 121.447 18.6369C116.983 18.6369 113.959 22.4529 113.959 27.3249C113.959 32.2449 116.911 36.0129 121.399 36.0129ZM121.447 32.6769C119.215 32.6769 117.751 30.3969 117.751 27.3249C117.751 24.2049 119.191 21.9729 121.399 21.9729C123.607 21.9729 125.095 24.2769 125.095 27.3249C125.095 30.4209 123.679 32.6769 121.447 32.6769ZM135.33 27.3249C137.778 27.3249 139.434 25.3809 139.434 23.0289C139.434 20.6289 137.802 18.7329 135.378 18.7329C132.93 18.7329 131.274 20.6529 131.274 23.0289C131.274 25.4289 132.906 27.3249 135.33 27.3249ZM132.954 35.7249H135.81L148.074 18.9249H145.218L132.954 35.7249ZM145.65 35.9169C148.098 35.9169 149.754 33.9729 149.754 31.6209C149.754 29.2209 148.122 27.3249 145.698 27.3249C143.25 27.3249 141.594 29.2449 141.594 31.6209C141.594 34.0209 143.226 35.9169 145.65 35.9169ZM135.378 25.1409C134.418 25.1409 133.794 24.1569 133.794 23.0289C133.794 21.8769 134.322 20.9169 135.33 20.9169C136.29 20.9169 136.914 21.9009 136.914 23.0289C136.914 24.1569 136.386 25.1409 135.378 25.1409ZM145.698 33.7329C144.738 33.7329 144.114 32.7489 144.114 31.6209C144.114 30.4689 144.642 29.5089 145.65 29.5089C146.61 29.5089 147.234 30.4929 147.234 31.6209C147.234 32.7489 146.706 33.7329 145.698 33.7329ZM160.054 35.7249H163.678V24.8289L168.358 31.9329H168.454L173.182 24.7569V35.7249H176.854V18.9249H172.87L168.454 26.0289L164.038 18.9249H160.054V35.7249ZM186.818 36.0129C190.826 36.0129 193.802 33.0129 193.802 29.3169C193.802 25.5729 190.85 22.6209 186.866 22.6209C182.858 22.6209 179.882 25.6209 179.882 29.3169C179.882 33.0609 182.834 36.0129 186.818 36.0129ZM186.866 32.8689C184.85 32.8689 183.482 31.2129 183.482 29.3169C183.482 27.3729 184.73 25.7649 186.818 25.7649C188.834 25.7649 190.202 27.4209 190.202 29.3169C190.202 31.2609 188.954 32.8689 186.866 32.8689ZM196.443 35.7249H200.091V28.5489C200.091 26.8209 200.979 25.9329 202.371 25.9329C203.763 25.9329 204.579 26.8209 204.579 28.5489V35.7249H208.227V27.3969C208.227 24.4449 206.619 22.6209 203.859 22.6209C202.011 22.6209 200.931 23.6049 200.091 24.6849V22.8609H196.443V35.7249ZM217.492 36.0129C219.82 36.0129 221.548 35.1009 222.748 33.6129L220.66 31.7649C219.652 32.7009 218.764 33.0849 217.54 33.0849C215.908 33.0849 214.756 32.2209 214.396 30.5649H223.348C223.372 30.2289 223.396 29.8929 223.396 29.6049C223.396 25.9569 221.428 22.6209 217.132 22.6209C213.388 22.6209 210.772 25.6449 210.772 29.3169C210.772 33.3009 213.628 36.0129 217.492 36.0129ZM214.348 28.2849C214.636 26.6289 215.62 25.5489 217.132 25.5489C218.668 25.5489 219.628 26.6529 219.844 28.2849H214.348ZM228.578 39.6369C230.762 39.6369 231.818 38.6529 232.802 36.0369L237.746 22.8609H233.954L231.146 31.6209L228.218 22.8609H224.354L229.394 35.7729C229.082 36.4209 228.746 36.6129 228.122 36.6129C227.642 36.6129 227.042 36.3969 226.562 36.1089L225.338 38.7489C226.274 39.3009 227.258 39.6369 228.578 39.6369ZM87.0223 67.7249H95.0143C98.8063 67.7249 101.302 66.1889 101.302 63.1169C101.302 60.8129 100.102 59.6849 98.1583 58.9409C99.3583 58.2689 100.366 57.2129 100.366 55.3169C100.366 54.1169 99.9823 53.1809 99.2143 52.4129C98.2543 51.4529 96.7423 50.9249 94.8223 50.9249H87.0223V67.7249ZM90.6223 57.7169V54.1649H94.2703C95.8303 54.1649 96.6943 54.7889 96.6943 55.8929C96.6943 57.1889 95.6623 57.7169 94.0303 57.7169H90.6223ZM90.6223 64.4849V60.7889H94.8943C96.7903 60.7889 97.6303 61.4849 97.6303 62.6129C97.6303 63.9089 96.6463 64.4849 95.0143 64.4849H90.6223ZM107.607 67.9649C109.383 67.9649 110.607 67.3169 111.495 66.3329V67.7249H115.023V60.2609C115.023 58.5329 114.591 57.1169 113.631 56.1569C112.719 55.2449 111.279 54.7169 109.287 54.7169C107.103 54.7169 105.711 55.1249 104.295 55.7489L105.207 58.5329C106.383 58.1009 107.367 57.8369 108.759 57.8369C110.583 57.8369 111.519 58.6769 111.519 60.1889V60.4049C110.607 60.0929 109.671 59.8769 108.375 59.8769C105.327 59.8769 103.191 61.1729 103.191 63.9809C103.191 66.5729 105.183 67.9649 107.607 67.9649ZM108.711 65.4449C107.535 65.4449 106.719 64.8689 106.719 63.8849C106.719 62.6849 107.679 62.0609 109.239 62.0609C110.127 62.0609 110.943 62.2529 111.567 62.5409V63.1889C111.567 64.5089 110.415 65.4449 108.711 65.4449ZM124.234 68.0129C126.802 68.0129 128.242 67.0289 129.49 65.6609L127.354 63.5009C126.466 64.3409 125.626 64.8689 124.402 64.8689C122.41 64.8689 121.138 63.2849 121.138 61.3169C121.138 59.3729 122.434 57.7649 124.258 57.7649C125.698 57.7649 126.466 58.2929 127.258 59.0369L129.394 56.8769C128.194 55.5329 126.706 54.6209 124.282 54.6209C120.346 54.6209 117.538 57.6449 117.538 61.3169C117.538 65.0369 120.37 68.0129 124.234 68.0129ZM131.873 67.7249H135.521V63.8129L136.793 62.4689L140.153 67.7249H144.329L139.265 59.9249L144.161 54.8609H139.793L135.521 59.5409V50.2049H131.873V67.7249ZM161.743 68.0129C164.815 68.0129 167.191 66.8129 168.919 65.3489V58.0529H161.623V61.2449H165.343V63.6449C164.407 64.3169 163.207 64.6529 161.863 64.6529C158.887 64.6529 156.775 62.3969 156.775 59.3249C156.775 56.4209 158.911 54.0449 161.599 54.0449C163.543 54.0449 164.695 54.6689 165.991 55.7489L168.319 52.9409C166.567 51.4529 164.743 50.6369 161.719 50.6369C156.631 50.6369 152.911 54.5489 152.911 59.3249C152.911 64.3409 156.511 68.0129 161.743 68.0129ZM176.363 67.9649C178.211 67.9649 179.291 66.9809 180.131 65.9009V67.7249H183.779V54.8609H180.131V62.0369C180.131 63.7649 179.243 64.6529 177.851 64.6529C176.459 64.6529 175.643 63.7649 175.643 62.0369V54.8609H171.995V63.1889C171.995 66.1409 173.603 67.9649 176.363 67.9649ZM190.693 67.9649C192.469 67.9649 193.693 67.3169 194.581 66.3329V67.7249H198.109V60.2609C198.109 58.5329 197.677 57.1169 196.717 56.1569C195.805 55.2449 194.365 54.7169 192.373 54.7169C190.189 54.7169 188.797 55.1249 187.381 55.7489L188.293 58.5329C189.469 58.1009 190.453 57.8369 191.845 57.8369C193.669 57.8369 194.605 58.6769 194.605 60.1889V60.4049C193.693 60.0929 192.757 59.8769 191.461 59.8769C188.413 59.8769 186.277 61.1729 186.277 63.9809C186.277 66.5729 188.269 67.9649 190.693 67.9649ZM191.797 65.4449C190.621 65.4449 189.805 64.8689 189.805 63.8849C189.805 62.6849 190.765 62.0609 192.325 62.0609C193.213 62.0609 194.029 62.2529 194.653 62.5409V63.1889C194.653 64.5089 193.501 65.4449 191.797 65.4449ZM201.248 67.7249H204.896V62.9729C204.896 59.9009 206.384 58.4369 208.808 58.4369H209V54.6209C206.84 54.5249 205.64 55.6769 204.896 57.4529V54.8609H201.248V67.7249ZM214.318 67.9649C216.094 67.9649 217.318 67.3169 218.206 66.3329V67.7249H221.734V60.2609C221.734 58.5329 221.302 57.1169 220.342 56.1569C219.43 55.2449 217.99 54.7169 215.998 54.7169C213.814 54.7169 212.422 55.1249 211.006 55.7489L211.918 58.5329C213.094 58.1009 214.078 57.8369 215.47 57.8369C217.294 57.8369 218.23 58.6769 218.23 60.1889V60.4049C217.318 60.0929 216.382 59.8769 215.086 59.8769C212.038 59.8769 209.902 61.1729 209.902 63.9809C209.902 66.5729 211.894 67.9649 214.318 67.9649ZM215.422 65.4449C214.246 65.4449 213.43 64.8689 213.43 63.8849C213.43 62.6849 214.39 62.0609 215.95 62.0609C216.838 62.0609 217.654 62.2529 218.278 62.5409V63.1889C218.278 64.5089 217.126 65.4449 215.422 65.4449ZM224.873 67.7249H228.521V60.5489C228.521 58.8209 229.409 57.9329 230.801 57.9329C232.193 57.9329 233.009 58.8209 233.009 60.5489V67.7249H236.657V59.3969C236.657 56.4449 235.049 54.6209 232.289 54.6209C230.441 54.6209 229.361 55.6049 228.521 56.6849V54.8609H224.873V67.7249ZM244.17 67.9409C245.394 67.9409 246.282 67.6529 247.05 67.1969V64.2689C246.522 64.5569 245.922 64.7249 245.25 64.7249C244.434 64.7249 244.074 64.3169 244.074 63.4769V57.9809H247.098V54.8609H244.074V51.5729H240.426V54.8609H238.89V57.9809H240.426V64.0769C240.426 67.0529 241.938 67.9409 244.17 67.9409ZM255.531 68.0129C257.859 68.0129 259.587 67.1009 260.787 65.6129L258.699 63.7649C257.691 64.7009 256.803 65.0849 255.579 65.0849C253.947 65.0849 252.795 64.2209 252.435 62.5649H261.387C261.411 62.2289 261.435 61.8929 261.435 61.6049C261.435 57.9569 259.467 54.6209 255.171 54.6209C251.427 54.6209 248.811 57.6449 248.811 61.3169C248.811 65.3009 251.667 68.0129 255.531 68.0129ZM252.387 60.2849C252.675 58.6289 253.659 57.5489 255.171 57.5489C256.707 57.5489 257.667 58.6529 257.883 60.2849H252.387ZM270.25 68.0129C272.578 68.0129 274.306 67.1009 275.506 65.6129L273.418 63.7649C272.41 64.7009 271.522 65.0849 270.298 65.0849C268.666 65.0849 267.514 64.2209 267.154 62.5649H276.106C276.13 62.2289 276.154 61.8929 276.154 61.6049C276.154 57.9569 274.186 54.6209 269.89 54.6209C266.146 54.6209 263.53 57.6449 263.53 61.3169C263.53 65.3009 266.386 68.0129 270.25 68.0129ZM267.106 60.2849C267.394 58.6289 268.378 57.5489 269.89 57.5489C271.426 57.5489 272.386 58.6529 272.602 60.2849H267.106Z" fill="white"/>
</svg>

<svg width="343" height="89" fill="none" xmlns="http://www.w3.org/2000/svg"><path d="M332 0c6.075 0 11 4.925 11 11v68.719c0 5.113-4.172 9.281-9.358 9.281H4.688c-4.024 0-6.17-4.7-3.517-7.685l26.554-30.12a10.108 10.108 0 000-13.42L1.171 7.686C-1.482 4.7.664 0 4.688 0H332z" fill="#EDA85A"/><path d="M89.278 35.725h3.648v-16.92h-2.52l-4.824 1.44.768 3.024 2.928-.72v13.176zm14.589.288c4.488 0 7.488-3.816 7.488-8.688 0-4.92-3-8.688-7.44-8.688-4.464 0-7.488 3.816-7.488 8.688 0 4.92 2.952 8.688 7.44 8.688zm.048-3.336c-2.232 0-3.696-2.28-3.696-5.352 0-3.12 1.44-5.352 3.648-5.352s3.696 2.304 3.696 5.352c0 3.096-1.416 5.352-3.648 5.352zm17.484 3.336c4.488 0 7.488-3.816 7.488-8.688 0-4.92-3-8.688-7.44-8.688-4.464 0-7.488 3.816-7.488 8.688 0 4.92 2.952 8.688 7.44 8.688zm.048-3.336c-2.232 0-3.696-2.28-3.696-5.352 0-3.12 1.44-5.352 3.648-5.352s3.696 2.304 3.696 5.352c0 3.096-1.416 5.352-3.648 5.352zm13.883-5.352c2.448 0 4.104-1.944 4.104-4.296 0-2.4-1.632-4.296-4.056-4.296-2.448 0-4.104 1.92-4.104 4.296 0 2.4 1.632 4.296 4.056 4.296zm-2.376 8.4h2.856l12.264-16.8h-2.856l-12.264 16.8zm12.696.192c2.448 0 4.104-1.944 4.104-4.296 0-2.4-1.632-4.296-4.056-4.296-2.448 0-4.104 1.92-4.104 4.296 0 2.4 1.632 4.296 4.056 4.296zM135.378 25.14c-.96 0-1.584-.984-1.584-2.112 0-1.152.528-2.112 1.536-2.112.96 0 1.584.984 1.584 2.112 0 1.128-.528 2.112-1.536 2.112zm10.32 8.592c-.96 0-1.584-.984-1.584-2.112 0-1.152.528-2.112 1.536-2.112.96 0 1.584.984 1.584 2.112 0 1.128-.528 2.112-1.536 2.112zm14.356 1.992h3.624V24.829l4.68 7.104h.096l4.728-7.176v10.968h3.672v-16.8h-3.984l-4.416 7.104-4.416-7.104h-3.984v16.8zm26.764.288c4.008 0 6.984-3 6.984-6.696 0-3.744-2.952-6.696-6.936-6.696-4.008 0-6.984 3-6.984 6.696 0 3.744 2.952 6.696 6.936 6.696zm.048-3.144c-2.016 0-3.384-1.656-3.384-3.552 0-1.944 1.248-3.552 3.336-3.552 2.016 0 3.384 1.656 3.384 3.552 0 1.944-1.248 3.552-3.336 3.552zm9.577 2.856h3.648v-7.176c0-1.728.888-2.616 2.28-2.616s2.208.888 2.208 2.616v7.176h3.648v-8.328c0-2.952-1.608-4.776-4.368-4.776-1.848 0-2.928.984-3.768 2.064V22.86h-3.648v12.864zm21.049.288c2.328 0 4.056-.912 5.256-2.4l-2.088-1.848c-1.008.936-1.896 1.32-3.12 1.32-1.632 0-2.784-.864-3.144-2.52h8.952c.024-.336.048-.672.048-.96 0-3.648-1.968-6.984-6.264-6.984-3.744 0-6.36 3.024-6.36 6.696 0 3.984 2.856 6.696 6.72 6.696zm-3.144-7.728c.288-1.656 1.272-2.736 2.784-2.736 1.536 0 2.496 1.104 2.712 2.736h-5.496zm14.23 11.352c2.184 0 3.24-.984 4.224-3.6l4.944-13.176h-3.792l-2.808 8.76-2.928-8.76h-3.864l5.04 12.912c-.312.648-.648.84-1.272.84-.48 0-1.08-.216-1.56-.504l-1.224 2.64c.936.552 1.92.888 3.24.888zM87.022 67.725h7.992c3.792 0 6.288-1.536 6.288-4.608 0-2.304-1.2-3.432-3.144-4.176 1.2-.672 2.208-1.728 2.208-3.624 0-1.2-.384-2.136-1.152-2.904-.96-.96-2.472-1.488-4.392-1.488h-7.8v16.8zm3.6-10.008v-3.552h3.648c1.56 0 2.424.624 2.424 1.728 0 1.296-1.032 1.824-2.664 1.824h-3.408zm0 6.768v-3.696h4.272c1.896 0 2.736.696 2.736 1.824 0 1.296-.984 1.872-2.616 1.872h-4.392zm16.985 3.48c1.776 0 3-.648 3.888-1.632v1.392h3.528V60.26c0-1.728-.432-3.144-1.392-4.104-.912-.912-2.352-1.44-4.344-1.44-2.184 0-3.576.408-4.992 1.032l.912 2.784c1.176-.432 2.16-.696 3.552-.696 1.824 0 2.76.84 2.76 2.352v.216a9.141 9.141 0 00-3.144-.528c-3.048 0-5.184 1.296-5.184 4.104 0 2.592 1.992 3.984 4.416 3.984zm1.104-2.52c-1.176 0-1.992-.576-1.992-1.56 0-1.2.96-1.824 2.52-1.824.888 0 1.704.192 2.328.48v.648c0 1.32-1.152 2.256-2.856 2.256zm15.523 2.568c2.568 0 4.008-.984 5.256-2.352l-2.136-2.16c-.888.84-1.728 1.368-2.952 1.368-1.992 0-3.264-1.584-3.264-3.552 0-1.944 1.296-3.552 3.12-3.552 1.44 0 2.208.528 3 1.272l2.136-2.16c-1.2-1.344-2.688-2.256-5.112-2.256-3.936 0-6.744 3.024-6.744 6.696 0 3.72 2.832 6.696 6.696 6.696zm7.639-.288h3.648v-3.912l1.272-1.344 3.36 5.256h4.176l-5.064-7.8 4.896-5.064h-4.368l-4.272 4.68v-9.336h-3.648v17.52zm29.87.288c3.072 0 5.448-1.2 7.176-2.664v-7.296h-7.296v3.192h3.72v2.4c-.936.672-2.136 1.008-3.48 1.008-2.976 0-5.088-2.256-5.088-5.328 0-2.904 2.136-5.28 4.824-5.28 1.944 0 3.096.624 4.392 1.704l2.328-2.808c-1.752-1.488-3.576-2.304-6.6-2.304-5.088 0-8.808 3.912-8.808 8.688 0 5.016 3.6 8.688 8.832 8.688zm14.62-.048c1.848 0 2.928-.984 3.768-2.064v1.824h3.648V54.86h-3.648v7.176c0 1.728-.888 2.616-2.28 2.616s-2.208-.888-2.208-2.616V54.86h-3.648v8.328c0 2.952 1.608 4.776 4.368 4.776zm14.33 0c1.776 0 3-.648 3.888-1.632v1.392h3.528V60.26c0-1.728-.432-3.144-1.392-4.104-.912-.912-2.352-1.44-4.344-1.44-2.184 0-3.576.408-4.992 1.032l.912 2.784c1.176-.432 2.16-.696 3.552-.696 1.824 0 2.76.84 2.76 2.352v.216a9.141 9.141 0 00-3.144-.528c-3.048 0-5.184 1.296-5.184 4.104 0 2.592 1.992 3.984 4.416 3.984zm1.104-2.52c-1.176 0-1.992-.576-1.992-1.56 0-1.2.96-1.824 2.52-1.824.888 0 1.704.192 2.328.48v.648c0 1.32-1.152 2.256-2.856 2.256zm9.451 2.28h3.648v-4.752c0-3.072 1.488-4.536 3.912-4.536H209V54.62c-2.16-.096-3.36 1.056-4.104 2.832V54.86h-3.648v12.864zm13.07.24c1.776 0 3-.648 3.888-1.632v1.392h3.528V60.26c0-1.728-.432-3.144-1.392-4.104-.912-.912-2.352-1.44-4.344-1.44-2.184 0-3.576.408-4.992 1.032l.912 2.784c1.176-.432 2.16-.696 3.552-.696 1.824 0 2.76.84 2.76 2.352v.216a9.141 9.141 0 00-3.144-.528c-3.048 0-5.184 1.296-5.184 4.104 0 2.592 1.992 3.984 4.416 3.984zm1.104-2.52c-1.176 0-1.992-.576-1.992-1.56 0-1.2.96-1.824 2.52-1.824.888 0 1.704.192 2.328.48v.648c0 1.32-1.152 2.256-2.856 2.256zm9.451 2.28h3.648v-7.176c0-1.728.888-2.616 2.28-2.616s2.208.888 2.208 2.616v7.176h3.648v-8.328c0-2.952-1.608-4.776-4.368-4.776-1.848 0-2.928.984-3.768 2.064V54.86h-3.648v12.864zm19.297.216c1.224 0 2.112-.288 2.88-.744v-2.928a3.71 3.71 0 01-1.8.456c-.816 0-1.176-.408-1.176-1.248V57.98h3.024v-3.12h-3.024v-3.288h-3.648v3.288h-1.536v3.12h1.536v6.096c0 2.976 1.512 3.864 3.744 3.864zm11.361.072c2.328 0 4.056-.912 5.256-2.4l-2.088-1.848c-1.008.936-1.896 1.32-3.12 1.32-1.632 0-2.784-.864-3.144-2.52h8.952c.024-.336.048-.672.048-.96 0-3.648-1.968-6.984-6.264-6.984-3.744 0-6.36 3.024-6.36 6.696 0 3.984 2.856 6.696 6.72 6.696zm-3.144-7.728c.288-1.656 1.272-2.736 2.784-2.736 1.536 0 2.496 1.104 2.712 2.736h-5.496zm17.863 7.728c2.328 0 4.056-.912 5.256-2.4l-2.088-1.848c-1.008.936-1.896 1.32-3.12 1.32-1.632 0-2.784-.864-3.144-2.52h8.952c.024-.336.048-.672.048-.96 0-3.648-1.968-6.984-6.264-6.984-3.744 0-6.36 3.024-6.36 6.696 0 3.984 2.856 6.696 6.72 6.696zm-3.144-7.728c.288-1.656 1.272-2.736 2.784-2.736 1.536 0 2.496 1.104 2.712 2.736h-5.496z" fill="#fff"/></svg>
